actions/22x22-dark/view-time-schedule-baselined-add.svg

<svg viewBox="0 0 22 22" xmlns="http://www.w3.org/2000/svg"><path d="m4 3c-.55402 0-1 .44598-1 1v14c0 .55401.44598 1 1 1h14c .55402 0 1-.44599 1-1v-14c0-.55402-.44598-1-1-1zm6.199219 4h1.601562v3.199219h3.199219v1.601562h-3.199219v3.199219h-1.601562v-3.199219h-3.199219v-1.601562h3.199219z" fill="#f2f2f2"/><path d="m16.466797 3v16h1.066406v-16z" fill="#3daee9"/></svg>

<svg xmlns="http://www.w3.org/2000/svg" viewBox="0 0 22 22">
  <defs id="defs3051">
    <style type="text/css" id="current-color-scheme">
      .ColorScheme-Text {
        color:#f2f2f2;
      }
      .ColorScheme-Highlight {
        color:#3daee9;
      }
      </style>
  </defs>
 <path 
     style="fill:currentColor;fill-opacity:1;stroke:none" 
     d="M 4 3 C 3.44598 3 3 3.44598 3 4 L 3 18 C 3 18.55401 3.44598 19 4 19 L 18 19 C 18.55402 19 19 18.55401 19 18 L 19 4 C 19 3.44598 18.55402 3 18 3 L 4 3 z M 10.199219 7 L 11.800781 7 L 11.800781 10.199219 L 15 10.199219 L 15 11.800781 L 11.800781 11.800781 L 11.800781 15 L 10.199219 15 L 10.199219 11.800781 L 7 11.800781 L 7 10.199219 L 10.199219 10.199219 L 10.199219 7 z "
     class="ColorScheme-Text"
     />
 <path 
     style="fill:currentColor;fill-opacity:1;stroke:none" 
     d="M 16.466797 3 L 16.466797 19 L 17.533203 19 L 17.533203 3 L 16.466797 3 z "
     class="ColorScheme-Highlight"
     />
</svg>
